X: 6
T: The Famous Ballymote
R: reel
M: 4/4
L: 1/8
K: Gmix
|BGdG Bdde|fddc ABcA|BGdG Bdde|fdcA BG G2|
BG G2 Bdde|fddc ABcA|BGdG Bdde|fdcA BG G2||
|BGBd g2 ag|fddc ABcA|BGBd g2 ag|fdcA BGdG|
BGBd g2 ag|fddc ABcA|BG G2 g2 ag|fdcA =B4||


Tune 390	Setting 13226

